svgs/solid/swords-laser.svg

<svg xmlns="http://www.w3.org/2000/svg" viewBox="0 0 640 512"><!--! Font Awesome Pro 6.0.0-alpha3 by @fontawesome - https://fontawesome.com License - https://fontawesome.com/license (Commercial License) --><path d="M135 7.019c-9.125 9.125-9.375 23.87-.625 33.37L360 286v-103.5L168.4 6.394C158.9-2.355 144.1-2.105 135 7.019zM411.3 191.8c-10-10.25-27.26-3.066-27.26 11.31l.0001 136.9c-.1251 4.25 1.626 8.25 4.627 11.25l55.28 55.25l90.54-90.62L411.3 191.8zM489.2 383.9l107.4 107.5l22.76-22.62l-107.5-107.5L489.2 383.9zM630.6 412.1l-84.91-84.87l-22.64 22.62l107.6 107.5C643.1 444.9 643.1 424.6 630.6 412.1zM455.2 417.8l84.91 84.87c12.51 12.5 32.77 12.5 45.27 0l-107.6-107.5L455.2 417.8zM256 313.3l42.75-46.75L256 220V313.3zM400.8 155l104.9-114.7c8.75-9.375 8.5-24.12-.625-33.25s-23.88-9.375-33.25-.625l-128.1 117.6l37.88 34.75c5.875-2.5 12.25-3.875 18.62-3.875C400.4 154.9 400.5 155 400.8 155zM196.6 224.6l-28.75 29.12c-12.5-12.5-32.75-12.5-45.25 0C110.1 266.3 110.1 286.5 122.5 299l-113.1 113.1c-12.5 12.5-12.5 32.75 0 45.25l45.25 45.25c12.5 12.5 32.75 12.5 45.25 0l119.4-118.4C222.2 381.3 224 377.1 224 372.9V235.9C224 221.6 206.6 214.5 196.6 224.6zM168.5 360.5c-8.75 0-16-7.25-16-15.1c0-8.875 7.25-15.1 16-15.1c8.875 0 16 7.124 16 15.1C184.5 353.3 177.4 360.5 168.5 360.5z"/></svg>

<svg xmlns="http://www.w3.org/2000/svg" viewBox="0 0 640 512"><!-- Font Awesome Pro 6.0.0-alpha2 by @fontawesome - https://fontawesome.com License - https://fontawesome.com/license (Commercial License) --><path d="M135 7.019C125.875 16.144 125.625 30.893 134.375 40.393L360 286.009V182.513L168.375 6.394C158.875 -2.355 144.125 -2.105 135 7.019ZM411.269 191.762C401.264 181.513 384.006 188.637 384.006 203.012V340.007C383.881 344.256 385.632 348.256 388.633 351.256L443.909 406.504L534.451 315.883L411.269 191.762ZM489.18 383.88L596.605 491.376L619.365 468.752L511.816 361.256L489.18 383.88ZM630.621 412.129L545.706 327.257L523.071 349.881L630.621 457.377C643.126 444.878 643.126 424.628 630.621 412.129ZM455.164 417.754L540.079 502.625C552.584 515.125 572.844 515.125 585.35 502.625L477.8 395.129L455.164 417.754ZM256 313.258L298.75 266.509L256 220.011V313.258ZM400.75 155.014L505.625 40.268C514.375 30.893 514.125 16.144 505 7.019S481.125 -2.355 471.75 6.394L343.625 124.015L381.5 158.764C387.375 156.264 393.75 154.889 400.125 154.889C400.375 154.889 400.5 155.014 400.75 155.014ZM196.625 224.636L167.875 253.76C155.375 241.26 135.125 241.26 122.625 253.76C110.125 266.259 110.125 286.509 122.5 299.008L9.375 412.129C-3.125 424.628 -3.125 444.878 9.375 457.377L54.625 502.625C67.125 515.125 87.375 515.125 99.875 502.625L219.25 384.255C222.25 381.255 224 377.13 224 372.88V235.886C224 221.636 206.625 214.511 196.625 224.636ZM168.5 360.506C159.75 360.506 152.5 353.256 152.5 344.506C152.5 335.632 159.75 328.507 168.5 328.507C177.375 328.507 184.5 335.632 184.5 344.506C184.5 353.256 177.375 360.506 168.5 360.506Z"/></svg>
